public/build/img/sistema/logo-azul.svg

<svg width="393" height="107" viewBox="0 0 393 107" fill="none" xmlns="http://www.w3.org/2000/svg">
<path d="M116.664 106.874C114.325 106.874 110.813 106.685 106.775 106.34C101.954 105.929 96.5939 105.312 91.2732 104.557C84.837 103.644 78.4547 102.534 72.3035 101.258C65.1262 99.77 58.2961 98.0604 52.0029 96.1771C36.7238 91.6045 24.5959 86.0297 15.9562 79.6076C13.5144 77.7926 11.3251 75.8857 9.44886 73.9398C7.48595 71.904 5.81207 69.7697 4.47377 67.5964C3.07723 65.3284 2.00756 62.9553 1.29448 60.5429C0.552008 58.031 0.175537 55.4069 0.175537 52.7433C0.175537 50.0233 0.590775 47.3561 1.40975 44.8158C2.19797 42.3709 3.38131 39.9779 4.92684 37.7033C6.41166 35.5182 8.27033 33.3842 10.4512 31.3605C12.5416 29.4208 14.9832 27.5314 17.7082 25.7446C27.4275 19.3718 41.1595 13.9854 58.5228 9.73513C65.7895 7.95639 73.722 6.37341 82.1001 5.03018C89.3792 3.86314 97.0212 2.87159 104.814 2.08311C111.436 1.41294 118.037 0.900552 124.431 0.560153C131.157 0.202103 135.913 0.126953 138.718 0.126953C140.005 0.126953 141.159 0.142747 142.148 0.173932C142.858 0.196308 143.388 0.22788 143.767 0.270402C144.111 0.308867 144.255 0.348721 144.313 0.371608C144.253 0.411 144.076 0.496779 143.567 0.63383C143.089 0.762705 142.399 0.916421 141.457 1.10374C139.653 1.46291 137.13 1.90612 133.935 2.46726C118.874 5.11314 90.8392 10.0381 66.3834 18.7798C36.3601 29.5115 21.137 42.68 21.137 57.9197C21.137 74.4758 34.0259 87.2294 59.4456 95.8263C79.8814 102.738 102.52 105.015 113.399 106.109C115.091 106.28 116.427 106.414 117.394 106.531C117.896 106.592 118.27 106.645 118.538 106.693C118.673 106.717 118.768 106.738 118.836 106.755C118.62 106.803 118.062 106.874 116.664 106.874Z" fill="#1782FF"/>
<path d="M138.718 0.252585C135.916 0.252585 131.164 0.327692 124.444 0.685446C118.053 1.02563 111.457 1.53773 104.838 2.20751C97.0502 2.99553 89.4129 3.98646 82.1383 5.15279C73.7664 6.49502 65.84 8.07675 58.5794 9.85403C41.2391 14.0987 27.5278 19.4762 17.8264 25.8373C15.1089 27.6192 12.6742 29.5033 10.5899 31.4373C8.41641 33.4541 6.56415 35.5807 5.08459 37.7581C3.54486 40.0241 2.366 42.408 1.58078 44.8437C0.764847 47.3747 0.351109 50.0322 0.351109 52.7426C0.351109 55.3974 0.726283 58.0127 1.46624 60.516C2.17677 62.9199 3.24268 65.2846 4.63431 67.5446C5.96813 69.7107 7.63652 71.8379 9.59314 73.8672C11.4639 75.8074 13.6472 77.709 16.0823 79.5191C24.7053 85.9288 36.8134 91.4939 52.0703 96.0598C58.3574 97.9414 65.1812 99.6494 72.3521 101.136C78.4985 102.411 84.876 103.52 91.3072 104.433C102.576 106.032 112.163 106.747 116.665 106.747C117.186 106.747 117.587 106.738 117.895 106.723C117.718 106.699 117.51 106.672 117.266 106.643C116.309 106.529 115.014 106.399 113.375 106.234C102.487 105.139 79.8308 102.859 59.3709 95.9399C33.8843 87.3205 20.9615 74.5284 20.9615 57.9191C20.9615 42.6274 36.2174 29.4208 66.3053 18.666C90.7786 9.91814 118.826 4.99097 133.894 2.34393C136.996 1.79887 139.447 1.36836 141.239 1.01539C142.172 0.831583 142.866 0.680243 143.362 0.552737C143.581 0.496298 143.744 0.448732 143.865 0.409714C143.804 0.401666 143.734 0.393403 143.652 0.385164C143.29 0.348473 142.781 0.319637 142.141 0.29945C141.154 0.268348 140.003 0.252585 138.718 0.252585ZM138.718 0C140.038 0 141.187 0.0165646 142.156 0.0471039C164.454 0.750016 21.3126 11.2053 21.3126 57.9191C21.3126 104.633 124.503 105.484 118.925 106.867C118.576 106.953 117.803 107 116.665 107C99.6064 107 0 96.5339 0 52.7426C0 8.05891 109.671 0 138.718 0Z" fill="#1782FF"/>
<path d="M229.808 106.513C228.466 106.513 227.263 106.498 226.231 106.469C225.5 106.448 224.953 106.418 224.561 106.376C224.217 106.34 224.066 106.302 224 106.279C224.072 106.236 224.272 106.149 224.827 106.01C225.354 105.877 226.114 105.719 227.149 105.526C229.133 105.156 231.9 104.7 235.403 104.122C251.352 101.491 281.04 96.5939 306.744 88.1696C338.257 77.8413 354.236 65.3241 354.236 50.9657C354.236 35.273 340.494 23.32 313.392 15.4387C291.629 9.11005 266.751 7.1356 256.127 6.29248C254.387 6.15432 253.011 6.04519 252.017 5.94847C251.499 5.89816 251.113 5.8539 250.838 5.81315C250.74 5.79874 250.662 5.7856 250.6 5.77391C250.99 5.70917 251.762 5.67383 252.8 5.67383C255.24 5.67383 258.902 5.85316 263.113 6.17879C268.139 6.56746 273.728 7.14997 279.276 7.86334C285.986 8.72627 292.641 9.77494 299.054 10.9802C306.537 12.3865 313.659 14.0019 320.22 15.7815C336.151 20.102 348.796 25.3693 357.803 31.4373C360.349 33.1519 362.631 34.9534 364.587 36.7917C366.633 38.7146 368.377 40.7305 369.772 42.7832C371.228 44.925 372.342 47.166 373.085 49.4441C373.859 51.816 374.251 54.2939 374.251 56.8091C374.251 59.3774 373.819 61.8958 372.965 64.2945C372.144 66.6033 370.911 68.863 369.3 71.011C367.753 73.075 365.815 75.0907 363.542 77.0022C361.363 78.8347 358.818 80.6198 355.977 82.3078C345.843 88.3294 331.526 93.4188 313.422 97.4348C305.845 99.1155 297.575 100.611 288.84 101.88C281.25 102.983 273.283 103.92 265.158 104.665C258.253 105.298 251.372 105.782 244.705 106.104C237.692 106.442 232.733 106.513 229.808 106.513Z" fill="#1782FF"/>
<path d="M229.808 106.386C232.731 106.386 237.685 106.315 244.693 105.977C251.356 105.656 258.234 105.172 265.136 104.539C273.256 103.794 281.22 102.858 288.805 101.756C297.534 100.488 305.799 98.9929 313.37 97.3134C331.452 93.3023 345.749 88.2207 355.865 82.2098C358.698 80.5263 361.236 78.7464 363.409 76.9194C365.674 75.0147 367.604 73.0064 369.146 70.9504C370.75 68.8114 371.977 66.5613 372.795 64.2625C373.645 61.874 374.076 59.3661 374.076 56.8084C374.076 54.303 373.685 51.8347 372.914 49.4723C372.174 47.2034 371.064 44.9713 369.615 42.838C368.225 40.7928 366.486 38.7841 364.448 36.8677C362.498 35.035 360.222 33.2387 357.683 31.5288C348.693 25.4722 336.067 20.2136 320.158 15.899C313.603 14.121 306.487 12.5069 299.01 11.1017C292.601 9.8973 285.951 8.84934 279.245 7.98699C267.493 6.47585 257.495 5.79945 252.8 5.79945C252.454 5.79945 252.158 5.80319 251.906 5.80946C251.978 5.81664 252.054 5.82402 252.133 5.83159C253.119 5.92598 254.455 6.03203 256.147 6.16631C266.777 7.00999 291.672 8.98576 313.458 15.321C340.633 23.2234 354.412 35.2158 354.412 50.965C354.412 65.3773 338.398 77.9332 306.817 88.2838C281.097 96.7134 251.398 101.612 235.442 104.244C232.031 104.807 229.337 105.251 227.367 105.615C226.339 105.805 225.575 105.961 225.03 106.092C224.791 106.15 224.613 106.199 224.48 106.239C224.536 106.245 224.601 106.252 224.673 106.259C225.048 106.295 225.575 106.323 226.238 106.342C227.267 106.371 228.468 106.386 229.808 106.386ZM229.808 106.639C228.432 106.639 227.234 106.623 226.224 106.594C202.977 105.93 354.06 95.0995 354.06 50.965C354.06 6.83057 244.628 6.97959 250.443 5.67282C250.807 5.59107 251.613 5.54688 252.8 5.54688C270.584 5.54688 374.427 15.4351 374.427 56.8084C374.427 99.0249 260.091 106.639 229.808 106.639Z" fill="#1782FF"/>
<path d="M52.7156 42.7815L60.4676 38.0894H74.4756V46.1135H61.0116V53.7975H74.4756V61.7535H60.4676L52.7156 57.1295V42.7815ZM99.5676 58.4895L91.5436 53.7975H77.5356V61.7535H90.9996V69.5055H77.8076V77.1895H91.5436L99.5676 72.5655V58.4895ZM61.2836 64.8135V69.5055H74.4756V77.1895H60.6716L52.7156 72.5655V64.8135H61.2836ZM99.5676 50.7375V42.7815L91.5436 38.0894H77.5356V46.1135H90.9996V50.7375H99.5676ZM109.774 42.7815L117.526 38.0894H131.534V45.7735H118.342V53.7975H131.534V61.5495H118.342V77.1895H109.774V42.7815ZM156.626 42.7815L148.602 38.0894H134.594V45.7735H148.058V53.7975H134.594V61.5495H148.058V77.1895H156.626V42.7815ZM163.298 42.7815L171.254 38.0894H185.33V45.7735H172.138V69.2335H185.058V77.1895H171.254L163.298 72.5655V42.7815ZM201.582 64.5415V69.2335H188.662V77.1895H202.466L210.422 72.5655V64.5415H201.582ZM210.422 50.5335V42.7815L202.466 38.0894H188.39V45.7735H201.582V50.5335H210.422ZM221.271 38.0894H229.839V77.1895H221.271V38.0894ZM242.088 38.0894H249.84L263.848 51.2815V61.5495L250.656 48.8335V77.1895H242.088V38.0894ZM280.372 66.1735V38.0894H288.94V77.1895H280.916L266.908 63.7255V53.7975L280.372 66.1735ZM304.149 38.0894L318.157 61.5495V77.1895L296.397 40.6054L304.149 38.0894ZM335.565 38.0894L321.489 61.5495V77.1895L343.249 40.6054L335.565 38.0894Z" fill="#1782FF"/>
</svg>

<svg width="393" height="107" fill="none" xmlns="http://www.w3.org/2000/svg"><path d="M116.664 106.874c-2.339 0-5.851-.189-9.889-.534-4.821-.411-10.181-1.028-15.502-1.783a304.086 304.086 0 01-18.97-3.299c-7.177-1.488-14.007-3.198-20.3-5.08-15.28-4.573-27.407-10.148-36.047-16.57-2.442-1.815-4.63-3.722-6.507-5.668-1.963-2.036-3.637-4.17-4.975-6.344-1.397-2.268-2.466-4.64-3.18-7.053a27.498 27.498 0 01-1.118-7.8c0-2.72.415-5.387 1.234-7.927.788-2.445 1.971-4.838 3.517-7.113 1.485-2.185 3.343-4.319 5.524-6.343 2.09-1.94 4.532-3.829 7.257-5.615 9.72-6.373 23.452-11.76 40.815-16.01C65.79 7.956 73.722 6.373 82.1 5.03a396.062 396.062 0 0122.714-2.947A414.789 414.789 0 01124.431.56c6.726-.358 11.482-.433 14.287-.433 1.287 0 2.441.016 3.43.047.71.022 1.24.054 1.619.096.344.039.488.079.546.102-.06.039-.237.125-.746.262-.478.129-1.168.282-2.11.47-1.804.359-4.327.802-7.522 1.363-15.061 2.646-43.096 7.571-67.552 16.313-30.023 10.732-45.246 23.9-45.246 39.14 0 16.556 12.889 29.31 38.309 37.906 20.435 6.912 43.074 9.189 53.953 10.283 1.692.171 3.028.305 3.995.422.502.061.876.114 1.144.162.135.024.23.045.298.062-.216.048-.774.119-2.172.119z" fill="#1782FF"/><path d="M138.718.253c-2.802 0-7.554.075-14.274.432-6.391.34-12.987.853-19.606 1.523a395.846 395.846 0 00-22.7 2.945C73.766 6.495 65.84 8.077 58.58 9.854c-17.34 4.245-31.051 9.622-40.753 15.983-2.717 1.782-5.152 3.666-7.236 5.6-2.174 2.017-4.026 4.144-5.505 6.321-1.54 2.266-2.719 4.65-3.504 7.086a25.703 25.703 0 00-1.23 7.899c0 2.654.375 5.27 1.115 7.773.71 2.404 1.777 4.769 3.168 7.029 1.334 2.166 3.003 4.293 4.96 6.322 1.87 1.94 4.053 3.842 6.488 5.652 8.623 6.41 20.731 11.975 35.988 16.54 6.287 1.882 13.111 3.59 20.282 5.077a304.38 304.38 0 0018.955 3.297c11.269 1.599 20.856 2.314 25.358 2.314.521 0 .922-.009 1.23-.024a38.122 38.122 0 00-.629-.08c-.957-.114-2.252-.244-3.891-.409-10.888-1.095-33.544-3.375-54.004-10.294-25.487-8.62-38.41-21.412-38.41-38.02 0-15.293 15.256-28.5 45.344-39.254 24.474-8.748 52.52-13.675 67.588-16.322 3.102-.545 5.553-.976 7.345-1.329a40.429 40.429 0 002.123-.462c.219-.057.382-.104.503-.143a6.882 6.882 0 00-.213-.025A23.256 23.256 0 00142.141.3c-.987-.03-2.138-.046-3.423-.046zm0-.253c1.32 0 2.469.017 3.438.047C164.454.75 21.313 11.205 21.313 57.92s103.19 47.565 97.612 48.948c-.349.086-1.122.133-2.26.133C99.606 107 0 96.534 0 52.743 0 8.059 109.671 0 138.718 0zm91.09 106.513c-1.342 0-2.545-.015-3.577-.044a22.892 22.892 0 01-1.67-.093c-.344-.036-.495-.074-.561-.097.072-.043.272-.13.827-.269a40.67 40.67 0 012.322-.484c1.984-.37 4.751-.826 8.254-1.404 15.949-2.631 45.637-7.528 71.341-15.952 31.513-10.329 47.492-22.846 47.492-37.204 0-15.693-13.742-27.646-40.844-35.527-21.763-6.329-46.641-8.303-57.265-9.147-1.74-.138-3.116-.247-4.11-.344-.518-.05-.904-.094-1.179-.135a6.037 6.037 0 01-.238-.04c.39-.064 1.162-.1 2.2-.1 2.44 0 6.102.18 10.313.506a327.27 327.27 0 0116.163 1.684 347.68 347.68 0 0119.778 3.117c7.483 1.406 14.605 3.022 21.166 4.801 15.931 4.321 28.576 9.588 37.583 15.656 2.546 1.715 4.828 3.516 6.784 5.355 2.046 1.923 3.79 3.938 5.185 5.991 1.456 2.142 2.57 4.383 3.313 6.661a23.701 23.701 0 011.166 7.365 22.26 22.26 0 01-1.286 7.486c-.821 2.308-2.054 4.568-3.665 6.716-1.547 2.064-3.485 4.08-5.758 5.991-2.179 1.833-4.724 3.618-7.565 5.306-10.134 6.021-24.451 11.11-42.555 15.127-7.577 1.68-15.847 3.176-24.582 4.445a453.356 453.356 0 01-23.682 2.785 477.415 477.415 0 01-20.453 1.439c-7.013.338-11.972.409-14.897.409z" fill="#1782FF"/><path d="M229.808 106.386c2.923 0 7.877-.071 14.885-.409a475.44 475.44 0 0020.443-1.438 453.945 453.945 0 0023.669-2.783c8.729-1.268 16.994-2.763 24.565-4.443 18.082-4.01 32.379-9.092 42.495-15.103 2.833-1.684 5.371-3.464 7.544-5.29 2.265-1.905 4.195-3.914 5.737-5.97 1.604-2.139 2.831-4.389 3.649-6.688a22.171 22.171 0 001.281-7.454 23.61 23.61 0 00-1.162-7.336c-.74-2.269-1.85-4.5-3.299-6.634-1.39-2.045-3.129-4.054-5.167-5.97-1.95-1.833-4.226-3.63-6.765-5.34-8.99-6.056-21.616-11.314-37.525-15.629-6.555-1.778-13.671-3.392-21.148-4.797a347.473 347.473 0 00-19.765-3.115c-11.752-1.511-21.75-2.188-26.445-2.188-.346 0-.642.004-.894.01l.227.023c.986.094 2.322.2 4.014.334 10.63.844 35.525 2.82 57.311 9.155 27.175 7.902 40.954 19.895 40.954 35.644 0 14.412-16.014 26.968-47.595 37.319-25.72 8.43-55.419 13.328-71.375 15.96-3.411.563-6.105 1.007-8.075 1.371-1.028.19-1.792.346-2.337.477-.239.058-.417.107-.55.147l.193.02c.375.036.902.064 1.565.083 1.029.029 2.23.044 3.57.044zm0 .253c-1.376 0-2.574-.016-3.584-.045C202.977 105.93 354.06 95.1 354.06 50.965c0-44.134-109.432-43.985-103.617-45.292.364-.082 1.17-.126 2.357-.126 17.784 0 121.627 9.888 121.627 51.261 0 42.217-114.336 49.831-144.619 49.831z" fill="#1782FF"/><path d="M52.716 42.782l7.752-4.693h14.008v8.025H61.012v7.684h13.464v7.956H60.468l-7.752-4.624V42.78zM99.568 58.49l-8.024-4.693H77.536v7.957H91v7.752H77.808v7.683h13.736l8.024-4.623V58.489zm-38.284 6.324v4.692h13.192v7.683H60.672l-7.956-4.623v-7.752h8.568zm38.284-14.076v-7.956l-8.024-4.693H77.536v8.025H91v4.623h8.568zm10.206-7.956l7.752-4.693h14.008v7.684h-13.192v8.024h13.192v7.753h-13.192v15.64h-8.568V42.781zm46.852 0l-8.024-4.693h-14.008v7.684h13.464v8.024h-13.464v7.753h13.464v15.64h8.568V42.781zm6.672 0l7.956-4.693h14.076v7.684h-13.192v23.46h12.92v7.956h-13.804l-7.956-4.623V42.78zm38.284 21.76v4.692h-12.92v7.956h13.804l7.956-4.624V64.54h-8.84zm8.84-14.009v-7.752l-7.956-4.692H188.39v7.684h13.192v4.76h8.84zm10.849-12.444h8.568v39.1h-8.568v-39.1zm20.817 0h7.752l14.008 13.193V61.55l-13.192-12.716v28.355h-8.568v-39.1zm38.284 28.085V38.089h8.568v39.1h-8.024l-14.008-13.463v-9.928l13.464 12.376zm23.777-28.085l14.008 23.46v15.64l-21.76-36.584 7.752-2.516zm31.416 0l-14.076 23.46v15.64l21.76-36.584-7.684-2.516z" fill="#1782FF"/></svg>
